app/dist/common/images/windsunscienceandtechnologycoltd.svg

<svg height="18" viewBox="0 0 18 18" width="18" xmlns="http://www.w3.org/2000/svg"><path d="m0 0h18v18h-18z" fill="#f0f3fa"/><g fill="#004ca2"><path d="m8.37 7h-4.17l-1.2 5h1.2l.43-2h2.67l.19-1h-2.54c.12-.86.54-1 1.14-1h1.91l.38-1zm6.13 2h-1l-.55 3h1.05z"/><path d="m14.7 8 .3-1h-4.45c-.9 0-2.37.46-2.54 2.5-.16 1.96 1.12 2.5 1.9 2.5h2.4l.73-3h-2.54l-.5 1h1.8l-.3 1h-1.5c-.64 0-1.16-.36-1.03-1.5.12-1.14 1.28-1.5 1.65-1.5z"/></g></svg>

<!-- by TradingView --><svg width="18" height="18" viewBox="0 0 18 18" xmlns="http://www.w3.org/2000/svg"><path fill="#F0F3FA" d="M0 0h18v18H0z"/><path d="M8.37 7H4.2L3 12h1.2l.43-2H7.3l.19-1H4.95c.12-.86.54-1 1.14-1H8l.38-1ZM14.5 9h-1l-.55 3H14l.5-3Z" fill="#004CA2"/><path d="m14.7 8 .3-1h-4.45c-.9 0-2.37.46-2.54 2.5-.16 1.96 1.12 2.5 1.9 2.5h2.4l.73-3H10.5l-.5 1h1.8l-.3 1H10c-.64 0-1.16-.36-1.03-1.5.12-1.14 1.28-1.5 1.65-1.5h4.08Z" fill="#004CA2"/></svg>
